icons/clion/clion-original.svg

<?xml version="1.0" encoding="UTF-8"?>
<svg xmlns="http://www.w3.org/2000/svg" xmlns:xlink="http://www.w3.org/1999/xlink" width="128px" height="128px" viewBox="0 0 128 128" version="1.1">
<defs>
<linearGradient id="linear0" gradientUnits="userSpaceOnUse" x1="39.01" y1="23.27" x2="66.51" y2="23.27" gradientTransform="matrix(1.219048,0,0,1.219048,0,0)">
<stop offset="0" style="stop-color:rgb(100%,19.215686%,54.901961%);stop-opacity:1;"/>
<stop offset="0.15" style="stop-color:rgb(98.431373%,20.392157%,54.901961%);stop-opacity:1;"/>
<stop offset="0.28" style="stop-color:rgb(94.117647%,23.529412%,54.901961%);stop-opacity:1;"/>
<stop offset="0.42" style="stop-color:rgb(87.058824%,29.019608%,54.901961%);stop-opacity:1;"/>
<stop offset="0.54" style="stop-color:rgb(76.862745%,36.470588%,54.509804%);stop-opacity:1;"/>
<stop offset="0.67" style="stop-color:rgb(63.529412%,46.666667%,54.509804%);stop-opacity:1;"/>
<stop offset="0.79" style="stop-color:rgb(47.45098%,58.431373%,54.117647%);stop-opacity:1;"/>
<stop offset="0.91" style="stop-color:rgb(28.627451%,72.54902%,54.117647%);stop-opacity:1;"/>
<stop offset="1" style="stop-color:rgb(12.941176%,84.313725%,53.72549%);stop-opacity:1;"/>
</linearGradient>
<linearGradient id="linear1" gradientUnits="userSpaceOnUse" x1="27.99" y1="16.68" x2="13.87" y2="111.42" gradientTransform="matrix(1.219048,0,0,1.219048,0,0)">
<stop offset="0.09" style="stop-color:rgb(12.941176%,84.313725%,53.72549%);stop-opacity:1;"/>
<stop offset="0.9" style="stop-color:rgb(0%,60.392157%,89.803922%);stop-opacity:1;"/>
</linearGradient>
<linearGradient id="linear2" gradientUnits="userSpaceOnUse" x1="92.05" y1="13.4" x2="-4.53" y2="115.4" gradientTransform="matrix(1.219048,0,0,1.219048,0,0)">
<stop offset="0.09" style="stop-color:rgb(12.941176%,84.313725%,53.72549%);stop-opacity:1;"/>
<stop offset="0.9" style="stop-color:rgb(0%,60.392157%,89.803922%);stop-opacity:1;"/>
</linearGradient>
<linearGradient id="linear3" gradientUnits="userSpaceOnUse" x1="62.84" y1="77.02" x2="95.87" y2="81.72" gradientTransform="matrix(1.219048,0,0,1.219048,0,0)">
<stop offset="0.09" style="stop-color:rgb(12.941176%,84.313725%,53.72549%);stop-opacity:1;"/>
<stop offset="0.9" style="stop-color:rgb(0%,60.392157%,89.803922%);stop-opacity:1;"/>
</linearGradient>
</defs>
<g id="surface1">
<path style=" stroke:none;fill-rule:nonzero;fill:url(#linear0);" d="M 47.554688 51.25 L 50.089844 5.484375 L 76.703125 20.234375 Z M 47.554688 51.25 "/>
<path style=" stroke:none;fill-rule:nonzero;fill:url(#linear1);" d="M 47.554688 51.25 L 50.089844 5.484375 L 16.296875 26.78125 L 5.484375 91.527344 Z M 47.554688 51.25 "/>
<path style=" stroke:none;fill-rule:nonzero;fill:url(#linear2);" d="M 120.1875 40.558594 L 105.128906 9.949219 L 76.703125 20.234375 L 47.554688 51.25 L 5.484375 91.527344 L 43.433594 119.148438 L 91.136719 76.128906 Z M 120.1875 40.558594 "/>
<path style=" stroke:none;fill-rule:nonzero;fill:url(#linear3);" d="M 100.570312 72.582031 L 100.570312 100.570312 L 54.613281 100.570312 L 74.8125 116.199219 L 104.070312 122.515625 L 122.515625 80.761719 Z M 100.570312 72.582031 "/>
<path style=" stroke:none;fill-rule:nonzero;fill:rgb(0%,0%,0%);fill-opacity:1;" d="M 27.429688 27.429688 L 100.570312 27.429688 L 100.570312 100.570312 L 27.429688 100.570312 Z M 27.429688 27.429688 "/>
<path style=" stroke:none;fill-rule:nonzero;fill:rgb(100%,100%,100%);fill-opacity:1;" d="M 36.546875 86.746094 L 63.976562 86.746094 L 63.976562 91.320312 L 36.546875 91.320312 Z M 36.546875 86.746094 "/>
<path style=" stroke:none;fill-rule:nonzero;fill:rgb(100%,100%,100%);fill-opacity:1;" d="M 64.0625 36.5 L 70.15625 36.5 L 70.15625 58.917969 L 82.164062 58.917969 L 82.164062 64 L 64.0625 64 Z M 64.0625 36.5 "/>
<path style=" stroke:none;fill-rule:nonzero;fill:rgb(100%,100%,100%);fill-opacity:1;" d="M 34.597656 50.433594 L 34.597656 50.359375 C 34.527344 46.523438 36.03125 42.828125 38.753906 40.125 C 41.476562 37.421875 45.183594 35.949219 49.019531 36.046875 C 53.09375 35.847656 57.058594 37.398438 59.917969 40.3125 L 56.078125 44.789062 C 54.214844 42.859375 51.671875 41.738281 48.992188 41.667969 C 44.335938 41.667969 40.984375 45.53125 40.984375 50.273438 L 40.984375 50.359375 C 40.984375 55.101562 44.261719 59.050781 48.992188 59.050781 C 52.164062 59.050781 54.089844 57.832031 56.308594 55.808594 L 60.109375 59.734375 C 57.277344 63.011719 53.09375 64.808594 48.761719 64.609375 C 44.984375 64.667969 41.347656 63.191406 38.679688 60.519531 C 36.007812 57.847656 34.535156 54.207031 34.597656 50.433594 "/>
</g>
</svg>

<svg xmlns="http://www.w3.org/2000/svg" viewBox="0 0 128 128">
  <defs>
    <linearGradient id="a" gradientUnits="userSpaceOnUse" x1="39.01" y1="23.27" x2="66.51" y2="23.27" gradientTransform="rotate(.104) scale(1.21905)">
      <stop offset="0" stop-color="#ff318c"/>
      <stop offset=".15" stop-color="#fb348c"/>
      <stop offset=".28" stop-color="#f03c8c"/>
      <stop offset=".42" stop-color="#de4a8c"/>
      <stop offset=".54" stop-color="#c45d8b"/>
      <stop offset=".67" stop-color="#a2778b"/>
      <stop offset=".79" stop-color="#79958a"/>
      <stop offset=".91" stop-color="#49b98a"/>
      <stop offset="1" stop-color="#21d789"/>
    </linearGradient>
    <linearGradient id="b" gradientUnits="userSpaceOnUse" x1="27.99" y1="16.68" x2="13.87" y2="111.42" gradientTransform="rotate(.104) scale(1.21905)">
      <stop offset=".09" stop-color="#21d789"/>
      <stop offset=".9" stop-color="#009ae5"/>
    </linearGradient>
    <linearGradient id="c" gradientUnits="userSpaceOnUse" x1="92.05" y1="13.4" x2="-4.53" y2="115.4" gradientTransform="rotate(.104) scale(1.21905)">
      <stop offset=".09" stop-color="#21d789"/>
      <stop offset=".9" stop-color="#009ae5"/>
    </linearGradient>
    <linearGradient id="d" gradientUnits="userSpaceOnUse" x1="62.84" y1="77.02" x2="95.87" y2="81.72" gradientTransform="rotate(.104) scale(1.21905)">
      <stop offset=".09" stop-color="#21d789"/>
      <stop offset=".9" stop-color="#009ae5"/>
    </linearGradient>
  </defs>
  <path fill="url(#a)" d="M47.555 51.25 50.09 5.484l26.613 14.75Zm0 0"/>
  <path fill="url(#b)" d="M47.555 51.25 50.09 5.484 16.297 26.781 5.484 91.527Zm0 0"/>
  <path fill="url(#c)" d="m120.188 40.559-15.06-30.61-28.425 10.285L47.555 51.25 5.485 91.527l37.949 27.621 47.703-43.02Zm0 0"/>
  <path fill="url(#d)" d="M100.57 72.582v27.988H54.613l20.2 15.63 29.257 6.316 18.446-41.754Zm0 0"/>
  <path fill="#000" d="M27.43 27.43h73.14v73.14H27.43Zm0 0"/>
  <path fill="#fff" d="M36.547 86.746h27.43v4.574h-27.43ZM64.063 36.5h6.093v22.418h12.008V64H64.062ZM34.597 50.434v-.075a14.06 14.06 0 0 1 4.156-10.234 14.06 14.06 0 0 1 10.266-4.078 14.282 14.282 0 0 1 10.898 4.266l-3.84 4.476a10.222 10.222 0 0 0-7.086-3.121c-4.656 0-8.008 3.863-8.008 8.605v.086c0 4.743 3.278 8.692 8.008 8.692 3.172 0 5.098-1.219 7.317-3.242l3.8 3.925a14.138 14.138 0 0 1-11.347 4.875 13.94 13.94 0 0 1-10.082-4.09 13.94 13.94 0 0 1-4.082-10.085"/>
</svg>
